flaticon/household/cactus.svg

<svg xmlns="http://www.w3.org/2000/svg" width="32" height="32" viewBox="0 0 24 24">
    <path d="M9.558594 19.527344L12 19.527344C12.222656 19.527344 12.40625 19.34375 12.40625 19.117188 12.40625 18.894531 12.222656 18.710938 12 18.710938L9.558594 18.710938C9.335938 18.710938 9.152344 18.894531 9.152344 19.117188 9.152344 19.34375 9.335938 19.527344 9.558594 19.527344zM13.21875 19.527344C13.324219 19.527344 13.433594 19.480469 13.507812 19.40625 13.582031 19.332031 13.628906 19.222656 13.628906 19.117188 13.628906 19.007812 13.582031 18.902344 13.507812 18.828125 13.359375 18.679688 13.082031 18.683594 12.9375 18.828125 12.859375 18.902344 12.8125 19.007812 12.8125 19.117188 12.8125 19.222656 12.859375 19.332031 12.929688 19.40625 13.007812 19.480469 13.113281 19.527344 13.21875 19.527344zM11.59375 19.933594L10.78125 19.933594C10.554688 19.933594 10.371094 20.113281 10.371094 20.339844 10.371094 20.5625 10.554688 20.746094 10.78125 20.746094L11.59375 20.746094C11.816406 20.746094 12 20.5625 12 20.339844 12 20.113281 11.816406 19.933594 11.59375 19.933594zM9.269531 20.050781C9.199219 20.128906 9.152344 20.234375 9.152344 20.339844 9.152344 20.445312 9.199219 20.550781 9.269531 20.628906 9.347656 20.699219 9.453125 20.746094 9.558594 20.746094 9.664062 20.746094 9.769531 20.699219 9.847656 20.628906 9.921875 20.550781 9.964844 20.445312 9.964844 20.339844 9.964844 20.234375 9.921875 20.128906 9.847656 20.050781 9.699219 19.898438 9.425781 19.898438 9.269531 20.050781zM9.269531 20.050781"/>
    <path d="M 17.984375 2.964844 C 17.824219 2.808594 17.566406 2.808594 17.40625 2.964844 L 16.710938 3.660156 C 16.214844 3.203125 15.566406 2.90625 14.847656 2.859375 L 14.847656 2.035156 C 14.847656 1.808594 14.664062 1.628906 14.441406 1.628906 C 14.214844 1.628906 14.035156 1.808594 14.035156 2.035156 L 14.035156 2.910156 C 13.96875 2.921875 13.90625 2.941406 13.84375 2.957031 C 13.707031 2.457031 13.550781 2.015625 13.378906 1.636719 L 14.320312 0.695312 C 14.480469 0.535156 14.480469 0.277344 14.320312 0.121094 C 14.164062 -0.0390625 13.90625 -0.0390625 13.746094 0.121094 L 12.96875 0.898438 C 12.566406 0.308594 12.101562 0 11.59375 0 C 10.53125 0 9.753906 1.34375 9.28125 3.214844 L 8.625 2.558594 C 8.46875 2.402344 8.210938 2.402344 8.050781 2.558594 C 7.890625 2.71875 7.890625 2.976562 8.050781 3.136719 L 9.074219 4.160156 C 8.867188 5.277344 8.757812 6.515625 8.746094 7.738281 C 8.253906 7.785156 7.804688 7.992188 7.457031 8.304688 L 6.59375 7.441406 C 6.433594 7.28125 6.175781 7.28125 6.015625 7.441406 C 5.859375 7.601562 5.859375 7.855469 6.015625 8.015625 L 6.957031 8.953125 C 6.800781 9.257812 6.710938 9.601562 6.710938 9.964844 C 6.710938 11.199219 7.714844 12.203125 8.949219 12.203125 C 9.023438 12.203125 9.097656 12.199219 9.167969 12.191406 C 9.230469 12.484375 9.300781 12.757812 9.375 13.015625 L 8.339844 13.015625 C 8.113281 13.015625 7.933594 13.199219 7.933594 13.421875 C 7.933594 13.648438 8.113281 13.832031 8.339844 13.832031 L 9.644531 13.832031 C 9.832031 14.320312 10.046875 14.730469 10.28125 15.050781 L 6.304688 15.050781 L 6.304688 18.304688 L 7.230469 18.304688 L 9.109375 24 L 14.078125 24 L 15.957031 18.304688 L 16.882812 18.304688 L 16.882812 15.050781 L 12.914062 15.050781 C 13.453125 14.3125 13.851562 13.144531 14.101562 11.796875 L 15.253906 11.796875 C 15.480469 11.796875 15.660156 11.613281 15.660156 11.390625 C 15.660156 11.164062 15.480469 10.984375 15.253906 10.984375 L 14.230469 10.984375 C 14.324219 10.316406 14.382812 9.625 14.414062 8.9375 C 14.492188 8.941406 14.566406 8.949219 14.644531 8.949219 C 15.441406 8.949219 16.167969 8.636719 16.710938 8.136719 L 17.21875 8.640625 C 17.296875 8.71875 17.402344 8.761719 17.503906 8.761719 C 17.609375 8.761719 17.714844 8.71875 17.792969 8.640625 C 17.953125 8.480469 17.953125 8.226562 17.792969 8.066406 L 17.230469 7.503906 C 17.523438 7.039062 17.695312 6.488281 17.695312 5.898438 C 17.695312 5.308594 17.523438 4.757812 17.230469 4.292969 L 17.980469 3.542969 C 18.140625 3.382812 18.140625 3.125 17.984375 2.964844 Z M 7.527344 9.964844 C 7.527344 9.832031 7.550781 9.707031 7.585938 9.582031 L 8.050781 10.050781 C 8.128906 10.128906 8.234375 10.167969 8.339844 10.167969 C 8.441406 10.167969 8.546875 10.128906 8.625 10.050781 C 8.785156 9.890625 8.785156 9.632812 8.625 9.476562 L 8.035156 8.882812 C 8.285156 8.671875 8.601562 8.542969 8.949219 8.542969 C 8.957031 8.542969 8.96875 8.542969 8.976562 8.546875 L 9.109375 8.558594 C 9.375 8.589844 9.617188 8.691406 9.816406 8.847656 C 9.824219 8.851562 9.832031 8.859375 9.839844 8.867188 C 9.898438 8.910156 9.949219 8.960938 10 9.011719 C 10.015625 9.027344 10.027344 9.046875 10.039062 9.0625 C 10.082031 9.109375 10.117188 9.160156 10.152344 9.210938 C 10.167969 9.238281 10.183594 9.269531 10.199219 9.300781 C 10.226562 9.347656 10.25 9.390625 10.269531 9.4375 C 10.289062 9.484375 10.300781 9.53125 10.3125 9.578125 C 10.324219 9.617188 10.339844 9.652344 10.34375 9.691406 C 10.363281 9.78125 10.371094 9.871094 10.371094 9.964844 C 10.371094 10.054688 10.363281 10.144531 10.347656 10.226562 C 10.339844 10.253906 10.332031 10.28125 10.324219 10.308594 C 10.3125 10.367188 10.296875 10.421875 10.273438 10.472656 C 10.261719 10.503906 10.25 10.535156 10.234375 10.566406 C 10.214844 10.609375 10.191406 10.652344 10.164062 10.695312 C 10.144531 10.726562 10.128906 10.761719 10.105469 10.789062 C 10.085938 10.820312 10.0625 10.84375 10.039062 10.871094 C 9.867188 11.074219 9.636719 11.234375 9.363281 11.320312 L 9.222656 11.363281 C 9.132812 11.378906 9.042969 11.390625 8.949219 11.390625 C 8.164062 11.390625 7.527344 10.75 7.527344 9.964844 Z M 13.488281 23.1875 L 9.695312 23.1875 L 8.089844 18.304688 L 15.097656 18.304688 Z M 16.066406 17.492188 L 7.117188 17.492188 L 7.117188 15.863281 L 16.066406 15.863281 Z M 13.609375 8.765625 C 13.582031 9.582031 13.511719 10.320312 13.414062 10.984375 L 12.8125 10.984375 C 12.589844 10.984375 12.40625 11.164062 12.40625 11.390625 C 12.40625 11.613281 12.589844 11.796875 12.8125 11.796875 L 13.273438 11.796875 C 12.847656 13.914062 12.125 15.050781 11.59375 15.050781 C 11.285156 15.050781 10.886719 14.660156 10.523438 13.832031 L 11.1875 13.832031 C 11.410156 13.832031 11.59375 13.648438 11.59375 13.421875 C 11.59375 13.199219 11.410156 13.015625 11.1875 13.015625 L 10.222656 13.015625 C 10.125 12.703125 10.035156 12.351562 9.949219 11.964844 C 10.3125 11.78125 10.617188 11.507812 10.832031 11.167969 C 10.84375 11.148438 10.859375 11.128906 10.871094 11.105469 C 10.90625 11.046875 10.941406 10.984375 10.96875 10.921875 C 10.980469 10.898438 10.992188 10.878906 11 10.855469 C 11.035156 10.777344 11.066406 10.691406 11.09375 10.605469 C 11.097656 10.585938 11.101562 10.5625 11.109375 10.539062 C 11.128906 10.46875 11.144531 10.398438 11.15625 10.328125 C 11.160156 10.300781 11.164062 10.277344 11.167969 10.25 C 11.179688 10.15625 11.1875 10.0625 11.1875 9.964844 C 11.1875 9.851562 11.175781 9.738281 11.160156 9.628906 C 11.15625 9.609375 11.152344 9.589844 11.148438 9.570312 C 11.128906 9.464844 11.101562 9.359375 11.070312 9.257812 C 11.066406 9.246094 11.058594 9.230469 11.054688 9.21875 C 10.976562 9 10.867188 8.800781 10.730469 8.617188 C 10.730469 8.617188 10.726562 8.613281 10.726562 8.613281 C 10.4375 8.234375 10.03125 7.949219 9.558594 7.816406 C 9.566406 6.714844 9.644531 5.726562 9.773438 4.855469 L 10.085938 5.167969 C 10.164062 5.25 10.269531 5.289062 10.371094 5.289062 C 10.476562 5.289062 10.582031 5.25 10.660156 5.167969 C 10.820312 5.011719 10.820312 4.753906 10.660156 4.59375 L 9.949219 3.882812 C 10.371094 1.929688 11.050781 0.8125 11.59375 0.8125 C 11.820312 0.8125 12.097656 1.035156 12.378906 1.488281 L 11.710938 2.152344 C 11.554688 2.3125 11.554688 2.570312 11.710938 2.726562 C 11.792969 2.808594 11.894531 2.847656 12 2.847656 C 12.105469 2.847656 12.207031 2.808594 12.289062 2.726562 L 12.753906 2.261719 C 12.871094 2.554688 12.984375 2.886719 13.085938 3.277344 C 13.074219 3.285156 13.066406 3.292969 13.054688 3.300781 C 12.964844 3.355469 12.878906 3.414062 12.796875 3.476562 C 12.777344 3.488281 12.761719 3.5 12.746094 3.515625 C 12.648438 3.589844 12.558594 3.671875 12.472656 3.761719 C 12.464844 3.765625 12.457031 3.773438 12.453125 3.78125 C 12.375 3.859375 12.304688 3.945312 12.238281 4.03125 C 12.21875 4.054688 12.203125 4.074219 12.1875 4.097656 C 12.125 4.179688 12.070312 4.265625 12.015625 4.355469 C 12.007812 4.371094 12 4.382812 11.992188 4.398438 C 11.929688 4.507812 11.875 4.621094 11.824219 4.738281 C 11.78125 4.847656 11.742188 4.960938 11.710938 5.074219 C 11.703125 5.101562 11.695312 5.128906 11.6875 5.15625 C 11.667969 5.25 11.648438 5.339844 11.632812 5.4375 C 11.628906 5.46875 11.621094 5.496094 11.617188 5.53125 C 11.605469 5.652344 11.59375 5.773438 11.59375 5.898438 C 11.59375 5.964844 11.601562 6.035156 11.605469 6.101562 L 10.78125 6.101562 C 10.554688 6.101562 10.371094 6.28125 10.371094 6.507812 C 10.371094 6.734375 10.554688 6.914062 10.78125 6.914062 L 11.769531 6.914062 C 11.804688 7.007812 11.839844 7.097656 11.882812 7.183594 C 11.902344 7.226562 11.921875 7.273438 11.945312 7.3125 C 12 7.417969 12.058594 7.519531 12.125 7.613281 C 12.152344 7.65625 12.1875 7.699219 12.21875 7.742188 C 12.269531 7.804688 12.320312 7.867188 12.375 7.925781 C 12.410156 7.964844 12.441406 8.007812 12.480469 8.042969 C 12.5625 8.128906 12.652344 8.207031 12.742188 8.277344 C 12.777344 8.308594 12.8125 8.332031 12.851562 8.359375 C 12.949219 8.433594 13.050781 8.5 13.15625 8.558594 C 13.167969 8.5625 13.171875 8.570312 13.183594 8.574219 C 13.3125 8.644531 13.449219 8.703125 13.589844 8.757812 C 13.597656 8.757812 13.601562 8.761719 13.609375 8.765625 Z M 16.882812 5.898438 C 16.882812 6.261719 16.792969 6.605469 16.636719 6.910156 L 16.355469 6.628906 C 16.195312 6.46875 15.9375 6.46875 15.78125 6.628906 C 15.621094 6.785156 15.621094 7.042969 15.78125 7.203125 L 16.136719 7.558594 C 15.742188 7.917969 15.21875 8.136719 14.644531 8.136719 C 14.496094 8.136719 14.351562 8.121094 14.210938 8.09375 L 14.121094 8.070312 C 13.878906 8.011719 13.65625 7.914062 13.453125 7.789062 C 13.441406 7.78125 13.425781 7.773438 13.414062 7.765625 C 13.328125 7.710938 13.25 7.648438 13.175781 7.582031 C 13.148438 7.558594 13.125 7.535156 13.101562 7.515625 C 13.035156 7.449219 12.96875 7.382812 12.910156 7.308594 C 12.886719 7.28125 12.867188 7.253906 12.847656 7.226562 C 12.800781 7.164062 12.757812 7.09375 12.714844 7.027344 C 12.699219 7 12.6875 6.976562 12.671875 6.953125 C 12.664062 6.941406 12.660156 6.925781 12.65625 6.914062 L 13.222656 6.914062 C 13.445312 6.914062 13.628906 6.734375 13.628906 6.507812 C 13.628906 6.285156 13.445312 6.101562 13.222656 6.101562 L 12.425781 6.101562 C 12.417969 6.035156 12.40625 5.96875 12.40625 5.898438 C 12.40625 5.800781 12.417969 5.703125 12.429688 5.605469 C 12.433594 5.582031 12.4375 5.558594 12.4375 5.539062 C 12.453125 5.449219 12.472656 5.359375 12.5 5.273438 C 12.5 5.265625 12.5 5.261719 12.503906 5.257812 C 12.53125 5.160156 12.566406 5.066406 12.609375 4.976562 C 12.613281 4.964844 12.621094 4.953125 12.625 4.941406 C 12.664062 4.859375 12.710938 4.777344 12.757812 4.699219 C 12.761719 4.695312 12.765625 4.6875 12.769531 4.679688 C 12.824219 4.597656 12.886719 4.515625 12.949219 4.441406 C 12.957031 4.433594 12.964844 4.425781 12.976562 4.414062 C 13.035156 4.347656 13.097656 4.28125 13.167969 4.222656 C 13.175781 4.214844 13.183594 4.207031 13.191406 4.199219 C 13.269531 4.136719 13.347656 4.074219 13.433594 4.019531 C 13.441406 4.015625 13.449219 4.011719 13.453125 4.007812 C 13.539062 3.953125 13.628906 3.90625 13.722656 3.863281 C 13.726562 3.859375 13.730469 3.859375 13.738281 3.855469 L 13.789062 3.832031 C 13.867188 3.800781 13.949219 3.773438 14.035156 3.746094 L 14.035156 4.066406 C 14.035156 4.292969 14.21875 4.472656 14.441406 4.472656 C 14.667969 4.472656 14.847656 4.292969 14.847656 4.066406 L 14.847656 3.671875 C 15.34375 3.714844 15.789062 3.921875 16.136719 4.238281 L 15.78125 4.59375 C 15.621094 4.753906 15.621094 5.007812 15.78125 5.167969 C 15.859375 5.25 15.964844 5.289062 16.066406 5.289062 C 16.171875 5.289062 16.277344 5.25 16.355469 5.167969 L 16.636719 4.886719 C 16.792969 5.191406 16.882812 5.535156 16.882812 5.898438 Z M 16.882812 5.898438"/>
</svg>

<svg xmlns="http://www.w3.org/2000/svg" width="32" height="32" viewBox="0 0 24 24">
    <path d="M9.559 19.527H12a.408.408 0 0 0 0-.816H9.559a.408.408 0 0 0 0 .816zm0 0M13.219 19.527a.422.422 0 0 0 .289-.12.422.422 0 0 0 .12-.29.414.414 0 0 0-.12-.289.425.425 0 0 0-.57 0 .402.402 0 0 0-.126.29c0 .105.047.214.118.288a.43.43 0 0 0 .289.121zm0 0M11.594 19.934h-.813a.407.407 0 1 0 0 .812h.813a.406.406 0 1 0 0-.813zm0 0M9.27 20.05a.444.444 0 0 0-.118.29c0 .105.047.21.118.289.078.07.183.117.289.117.105 0 .21-.047.289-.117a.425.425 0 0 0 .117-.29.425.425 0 0 0-.117-.288.423.423 0 0 0-.578 0zm0 0"/>
    <path d="M17.984 2.965a.415.415 0 0 0-.578 0l-.695.695a3.037 3.037 0 0 0-1.863-.8v-.825a.406.406 0 1 0-.813 0v.875c-.066.012-.129.031-.191.047a8.888 8.888 0 0 0-.465-1.32l.941-.942a.403.403 0 0 0 0-.574.403.403 0 0 0-.574 0l-.777.777C12.566.308 12.102 0 11.594 0 10.53 0 9.754 1.344 9.28 3.215l-.656-.656a.408.408 0 0 0-.574.578L9.074 4.16a21.114 21.114 0 0 0-.328 3.578 2.25 2.25 0 0 0-1.289.567l-.863-.864a.408.408 0 0 0-.578.575l.941.937a2.212 2.212 0 0 0-.246 1.012 2.24 2.24 0 0 0 2.457 2.226c.062.293.133.567.207.825H8.34a.406.406 0 0 0-.406.406c0 .226.18.41.406.41h1.305c.187.488.402.898.636 1.219H6.305v3.254h.925L9.11 24h4.968l1.879-5.695h.926V15.05h-3.969c.54-.739.938-1.906 1.188-3.254h1.152a.406.406 0 1 0 0-.813H14.23c.094-.668.153-1.359.184-2.046.078.003.152.011.23.011.797 0 1.524-.312 2.067-.812l.508.504a.41.41 0 0 0 .285.12c.105 0 .21-.042.289-.12a.403.403 0 0 0 0-.575l-.563-.562a3.004 3.004 0 0 0 0-3.211l.75-.75c.16-.16.16-.418.004-.578zm-10.457 7c0-.133.024-.258.059-.383l.465.469a.408.408 0 0 0 .574 0 .403.403 0 0 0 0-.574l-.59-.594c.25-.211.567-.34.914-.34.008 0 .02 0 .028.004l.132.012c.266.03.508.132.707.289.008.004.016.011.024.02.058.042.11.093.16.144.016.015.027.035.04.05.042.047.077.098.112.149.016.027.032.059.047.09.028.047.051.09.07.136.02.047.032.094.043.141.012.04.028.074.032.113a1.418 1.418 0 0 1 .004.535l-.024.083a.73.73 0 0 1-.05.164c-.012.03-.024.062-.04.093-.02.043-.043.086-.07.13-.02.03-.035.066-.059.093-.02.031-.043.055-.066.082a1.455 1.455 0 0 1-.676.45l-.14.042a1.425 1.425 0 0 1-1.695-1.398zm5.961 13.223H9.695L8.09 18.305h7.008zm2.578-5.696H7.117v-1.629h8.95zM13.61 8.766a19.796 19.796 0 0 1-.195 2.218h-.601a.406.406 0 1 0 0 .813h.46c-.425 2.117-1.148 3.254-1.68 3.254-.308 0-.706-.39-1.07-1.219h.665a.408.408 0 0 0 0-.816h-.965a13.061 13.061 0 0 1-.274-1.051c.364-.184.668-.457.883-.797.012-.02.027-.04.04-.063.034-.058.07-.12.097-.183.011-.024.023-.043.031-.067.035-.078.066-.164.094-.25.004-.02.008-.043.015-.066.02-.07.036-.14.047-.21l.012-.079a2.28 2.28 0 0 0 .02-.285c0-.113-.012-.227-.028-.336l-.012-.059a2.81 2.81 0 0 0-.078-.312l-.015-.04a2.293 2.293 0 0 0-.325-.6l-.003-.005a2.23 2.23 0 0 0-1.168-.797c.007-1.101.086-2.09.214-2.96l.313.312a.394.394 0 0 0 .285.121c.106 0 .211-.039.29-.121a.403.403 0 0 0 0-.574l-.712-.711c.422-1.953 1.102-3.07 1.645-3.07.226 0 .504.222.785.675l-.668.664a.41.41 0 0 0 0 .575.402.402 0 0 0 .289.12c.105 0 .207-.038.29-.12l.464-.465c.117.293.23.625.332 1.015-.012.008-.02.016-.031.024a2.992 2.992 0 0 0-.582.46 2.593 2.593 0 0 0-.285.336 2.956 2.956 0 0 0-.172.258l-.024.043c-.062.11-.117.223-.168.34a3.394 3.394 0 0 0-.136.418c-.02.094-.04.184-.055.282-.004.03-.012.058-.016.093a3.78 3.78 0 0 0-.023.367c0 .067.008.137.011.204h-.824a.407.407 0 1 0 0 .812h.989c.035.094.07.184.113.27.02.043.039.09.062.128.055.106.114.208.18.301.027.043.063.086.094.13.05.062.101.124.156.183.035.039.066.082.105.117.082.086.172.164.262.234.035.032.07.055.11.082.097.075.199.141.304.2.012.004.016.011.028.015.129.07.265.13.406.184.008 0 .012.004.02.008zm3.274-2.868c0 .364-.09.707-.246 1.012l-.282-.281a.403.403 0 0 0-.574 0 .403.403 0 0 0 0 .574l.356.356a2.208 2.208 0 0 1-1.926.535l-.09-.024a2.307 2.307 0 0 1-.668-.28c-.012-.009-.027-.017-.039-.024a1.838 1.838 0 0 1-.238-.184c-.028-.023-.051-.047-.074-.066a2.403 2.403 0 0 1-.192-.207c-.023-.028-.043-.055-.062-.082-.047-.063-.09-.133-.133-.2-.016-.027-.027-.05-.043-.074-.008-.012-.012-.027-.016-.039h.567a.406.406 0 1 0 0-.812h-.797c-.008-.067-.02-.133-.02-.204 0-.097.012-.195.024-.293a2.02 2.02 0 0 1 .07-.332c0-.007 0-.011.004-.015.027-.098.062-.192.105-.281.004-.012.012-.024.016-.036.04-.082.086-.164.133-.242a2.715 2.715 0 0 1 .191-.258l.028-.027c.058-.066.12-.133.191-.191l.023-.024c.079-.062.157-.125.243-.18a2.227 2.227 0 0 1 .29-.156c.003-.004.006-.004.014-.008l.051-.023c.078-.031.16-.059.246-.086v.32a.406.406 0 1 0 .813 0v-.394c.496.043.941.25 1.289.566l-.356.356a.403.403 0 0 0 0 .574.394.394 0 0 0 .285.121c.106 0 .211-.039.29-.121l.28-.281c.157.304.247.648.247 1.011zm0 0"/>
</svg>
